X: 13
T: Głupi mówi w sercu swoim:
C: Mikołaj Gomółka
%%abc-version 2.0
%%abcx-abcm2ps-target-version 5.9.1 (29 Sep 2008)
%%abc-creator hum2abc beta
%%abcx-conversion-date 2021/10/04 07:59:09
%%abc-edited-by Marta Lawrence
%%abcx-initial-encoding-date 2020-02-04
%%humdrum-veritas 2801918281
%%humdrum-veritas-data 3948820885
%%linebreak <none>
%%barnumbers 0
L: 1/4
M: 3/1
N: Derived from pl-wn--sd-xvi-qu-273--014_gomolka-mikolaj--glupi-mowi-w-sercu-swoim.krn
%%staves [1 2 3 4]
V: 1
V: 2 clef=alto
V: 3 clef=alto
V: 4 clef=bass
K: F
[V:1] z4z2^F2F2F2 [|] 
[V:2] z4z2D2D2D2 [|] 
[V:3] z4z2A,2A,2A,2 [|] 
[V:4] z4z2D,2D,2D,2 [|] 
[V:1] A4B2>A2G2G4 [|] 
[V:2] F2>E2D4_E4 [|] 
[V:3] D2>C2B,4C3B, [|] 
[V:4] D,4G,2>F,2_E,2C,2 [|] 
[V:1] F2G2G2 :|]  
[V:2] D2>C2=B,4 :|]  
[V:3] A,G,A,2G,2G,2 :|]  
[V:4] D,4G,,2G,,2 :|]  
[V:1] z2A2 [I:setbarnb 4][|] 
[V:2] z2F2 [|] 
[V:3] z2D2 [|] 
[V:4] z2D,2 [|] 
[V:1] A2A2c2>B2A6 [|] 
[V:2] F2F2E4F3E [|] 
[V:3] D2D2C4C2F4 [|] 
[V:4] D,2D,2A,2>G,2F,4 [|] 
[V:1] G2A2A2z2A2 [|] 
[V:2] DCD2E2E2z2F2 [|] 
[V:3] ED^C2^C2z2D2 [|] 
[V:4] B,4A,2A,2z2D,2 [|] 
[V:1] A2A2B2>A2G4 [|] 
[V:2] F2F2D4_E4 [|] 
[V:3] D2D2B,8 [|] 
[V:4] D,2D,2G,2>F,2_E,4 [|] 
[V:1] G4F4!fermata!G8 |]  
[V:2] _E4D2>C2B,8 |]  
[V:3] _C2>B,2A,G,A,2!fermata!G,8 |]  
[V:4] C,4D,4!fermata!G,,8 |]  


